src/OnboardingSPA/static/icons/design.svg

<svg fill="none" height="24" viewBox="0 0 22 24" width="22" xmlns="http://www.w3.org/2000/svg"><path clip-rule="evenodd" d="m20.6025 1.15931c-.8284-.829886-2.071-.829886-2.8994 0l-9.94067 9.95859c-.49588-.1242-.88045-.0254-1.3536.0962l-.0002.0001c-.05373.0138-.1086.0279-.16491.042-.69033.2766-2.07098.9682-2.62324 3.0429-.48715 2.0742-.97431 2.8568-1.3667 3.4872l-.00006.0001c-.05242.0842-.10314.1657-.15195.2472-.06903.0691-.13806.1729-.2071.2766-.06903.1037-.13806.2075-.2071.2766l-.828385 1.5215h1.932905c2.7613 0 4.69421-.5533 6.48905-1.9364 1.10456-.8299 1.65676-1.9364 1.79486-3.1812 0-.415 0-.6916-.1381-.9682l9.8026-9.82029c.6904-.82988.6904-2.21302-.138-3.0429zm-20.5717249 22.82179h11.0452249v-2.0747h-11.0452249zm4.5561649-5.9474c1.24258-.2766 2.3471-.6916 3.31355-1.3831.82839-.5533.96646-1.3832.96646-1.7981.13806-.415 0-.8299-.27613-1.1065-.4142-.2767-1.10452-.5533-1.79485-.415-.55225.1383-.82838.6916-1.10451 1.5215-.37025 1.36-.7405 2.2779-1.01213 2.9514-.03224.0799-.06309.1564-.09239.2298z" fill="#fff" fill-rule="evenodd"/></svg>

<svg width="22" height="24" viewBox="0 0 22 24" fill="none" xmlns="http://www.w3.org/2000/svg">
<path fill-rule="evenodd" clip-rule="evenodd" d="M20.6025 1.15931C19.7741 0.329424 18.5315 0.329424 17.7031 1.15931L7.76243 11.1179C7.26655 10.9937 6.88198 11.0925 6.40883 11.2141L6.40863 11.2142C6.3549 11.228 6.30003 11.2421 6.24372 11.2562C5.55339 11.5328 4.17274 12.2244 3.62048 14.2991C3.13333 16.3733 2.64617 17.1559 2.25378 17.7863L2.25372 17.7864C2.2013 17.8706 2.15058 17.9521 2.10177 18.0336C2.03274 18.1027 1.96371 18.2065 1.89467 18.3102C1.82564 18.4139 1.75661 18.5177 1.68757 18.5868L0.859185 20.1083H2.79209C5.55339 20.1083 7.4863 19.555 9.28114 18.1719C10.3857 17.342 10.9379 16.2355 11.076 14.9907V14.9907C11.076 14.5757 11.076 14.2991 10.9379 14.0225L20.7405 4.20221C21.4309 3.37233 21.4309 1.98919 20.6025 1.15931ZM0.0307751 23.9811H11.076V21.9064H0.0307751V23.9811ZM4.58694 18.0337C5.82952 17.7571 6.93404 17.3421 7.90049 16.6506C8.72888 16.0973 8.86695 15.2674 8.86695 14.8525C9.00501 14.4375 8.86695 14.0226 8.59082 13.746C8.17662 13.4693 7.4863 13.1927 6.79597 13.331C6.24372 13.4693 5.96759 14.0226 5.69146 14.8525C5.32121 16.2125 4.95096 17.1304 4.67933 17.8039C4.64709 17.8838 4.61624 17.9603 4.58694 18.0337Z" fill="white"/>
</svg>
